X: 1
T: The RSB
R: jig
M: 6/8
L: 1/8
K: Emin
|:E2E EFG|GFE EFG|GFE EFG|GFE ~E2D|
EFG GFE|F2A-A2G|1F2A AGF|BcB AGF:|2BcB AGF|E6|
|:e3 d3|B2B BAB|A2A AGA|G2F EGB|
e3 d3|B2B BcB|1~A3 G2F|E3 EGB:|2ABA G2F|E6|]

